preferences/22/preferences-desktop-navigation.svg

<?xml version="1.0" encoding="UTF-8" standalone="no"?>
<!-- Created with Inkscape (http://www.inkscape.org/) -->

<svg
   width="22"
   height="22"
   version="1.1"
   viewBox="0 0 22 22"
   id="svg22"
   sodipodi:docname="preferences-desktop-navigation.svg"
   inkscape:version="1.1.2 (0a00cf5339, 2022-02-04)"
   xmlns:inkscape="http://www.inkscape.org/namespaces/inkscape"
   xmlns:sodipodi="http://sodipodi.sourceforge.net/DTD/sodipodi-0.dtd"
   xmlns:xlink="http://www.w3.org/1999/xlink"
   xmlns="http://www.w3.org/2000/svg"
   xmlns:svg="http://www.w3.org/2000/svg">
  <sodipodi:namedview
     id="namedview24"
     pagecolor="#ffffff"
     bordercolor="#666666"
     borderopacity="1.0"
     inkscape:showpageshadow="2"
     inkscape:pageopacity="0.0"
     inkscape:pagecheckerboard="0"
     inkscape:deskcolor="#d1d1d1"
     showgrid="false"
     inkscape:zoom="25.62"
     inkscape:cx="-4.0593286"
     inkscape:cy="13.934426"
     inkscape:window-width="3440"
     inkscape:window-height="1356"
     inkscape:window-x="0"
     inkscape:window-y="0"
     inkscape:window-maximized="1"
     inkscape:current-layer="svg22"
     inkscape:pageshadow="2" />
  <defs
     id="defs12">
    <linearGradient
       id="linearGradient1005-3-3"
       x1="5.2535"
       x2="9.3823996"
       y1="15.383"
       y2="2.9421"
       gradientTransform="matrix(0.99999,0,0,0.99999,1.632,-0.61743)"
       gradientUnits="userSpaceOnUse">
      <stop
         stop-color="#fa8200"
         offset="0"
         id="stop2" />
      <stop
         stop-color="#ff9600"
         offset=".36953"
         id="stop4" />
      <stop
         stop-color="#ffb400"
         offset="1"
         id="stop6" />
    </linearGradient>
    <filter
       id="filter4014"
       x="-0.062499933"
       y="-0.057692993"
       width="1.1249999"
       height="1.115386"
       color-interpolation-filters="sRGB">
      <feGaussianBlur
         stdDeviation="1.093751"
         id="feGaussianBlur9" />
    </filter>
    <linearGradient
       inkscape:collect="always"
       xlink:href="#linearGradient3487"
       id="linearGradient3403"
       gradientUnits="userSpaceOnUse"
       x1="6.9491749"
       y1="4.5549412"
       x2="11.215498"
       y2="59.052471" />
    <linearGradient
       id="linearGradient3487">
      <stop
         style="stop-color:#32373c;stop-opacity:1"
         offset="0"
         id="stop3481" />
      <stop
         id="stop3483"
         offset="0.36804965"
         style="stop-color:#1a1a1a;stop-opacity:1" />
      <stop
         style="stop-color:#31363b;stop-opacity:1"
         offset="1"
         id="stop3485" />
    </linearGradient>
    <linearGradient
       inkscape:collect="always"
       xlink:href="#linearGradient20604"
       id="linearGradient20558"
       gradientUnits="userSpaceOnUse"
       x1="25.802212"
       y1="20.373846"
       x2="25.111048"
       y2="58.912758" />
    <linearGradient
       id="linearGradient20604">
      <stop
         id="stop20598"
         offset="0"
         style="stop-color:#3d3d3d;stop-opacity:1" />
      <stop
         style="stop-color:#000000;stop-opacity:1"
         offset="0.61772454"
         id="stop20600" />
      <stop
         id="stop20602"
         offset="1"
         style="stop-color:#3d3d3d;stop-opacity:1" />
    </linearGradient>
    <filter
       inkscape:collect="always"
       style="color-interpolation-filters:sRGB"
       id="filter20720"
       x="-0.017024755"
       y="-0.016457183"
       width="1.0340491"
       height="1.0329144">
      <feGaussianBlur
         inkscape:collect="always"
         stdDeviation="0.14745661"
         id="feGaussianBlur20722" />
    </filter>
    <linearGradient
       gradientTransform="translate(0.36067797,-0.13016949)"
       xlink:href="#linearGradient4555"
       id="linearGradient4557"
       x1="43.499737"
       y1="64.011795"
       x2="44.141731"
       y2="0.30621234"
       gradientUnits="userSpaceOnUse" />
    <linearGradient
       id="linearGradient4555">
      <stop
         style="stop-color:#141618;stop-opacity:1"
         offset="0"
         id="stop4551" />
      <stop
         id="stop4559"
         offset="0.51820582"
         style="stop-color:#686868;stop-opacity:1" />
      <stop
         style="stop-color:#31363b;stop-opacity:1"
         offset="1"
         id="stop4553" />
    </linearGradient>
    <filter
       style="color-interpolation-filters:sRGB"
       id="filter4601"
       x="-0.030244762"
       width="1.0604895"
       y="-0.030100647"
       height="1.0602013">
      <feGaussianBlur
         stdDeviation="0.014790289"
         id="feGaussianBlur4603" />
    </filter>
    <linearGradient
       id="f"
       x1="400.57141"
       x2="400.57141"
       y1="545.79797"
       y2="517.79797"
       gradientTransform="matrix(0.85714369,0,0,0.85714361,-327.34726,-439.82723)"
       gradientUnits="userSpaceOnUse">
      <stop
         stop-color="#eff0f1"
         offset="0"
         id="stop12" />
      <stop
         stop-color="#fcfcfc"
         offset="1"
         id="stop14" />
    </linearGradient>
    <linearGradient
       id="e"
       x1="9"
       x2="18"
       y1="14"
       y2="23"
       gradientUnits="userSpaceOnUse">
      <stop
         stop-color="#4d4d4d"
         offset="0"
         id="stop17" />
      <stop
         stop-color="#232629"
         offset="1"
         id="stop19" />
    </linearGradient>
    <linearGradient
       id="c"
       x1="23"
       x2="23"
       y1="18"
       y2="9"
       gradientUnits="userSpaceOnUse">
      <stop
         stop-color="#c61423"
         offset="0"
         id="stop7" />
      <stop
         stop-color="#dc2b41"
         offset="1"
         id="stop9" />
    </linearGradient>
    <linearGradient
       id="g"
       x1="11"
       x2="26"
       y1="8"
       y2="24"
       gradientTransform="translate(-1.9999999,1.0000001)"
       gradientUnits="userSpaceOnUse">
      <stop
         stop-color="#292c2f"
         offset="0"
         id="stop22" />
      <stop
         stop-opacity="0"
         offset="1"
         id="stop24" />
    </linearGradient>
    <linearGradient
       id="d"
       x1="16"
       x2="16"
       y1="30"
       y2="2"
       gradientTransform="translate(-0.39082092,-2.1567227)"
       gradientUnits="userSpaceOnUse">
      <stop
         stop-color="#788085"
         offset="0"
         id="stop2-9" />
      <stop
         stop-color="#9ba1a6"
         offset="1"
         id="stop4-0" />
    </linearGradient>
  </defs>
  <rect
     style="display:inline;fill:#fafafa;fill-opacity:1;fill-rule:evenodd;stroke:none;stroke-width:0.41056;stroke-linejoin:round;stroke-miterlimit:7.8"
     id="rect1192"
     width="18.622417"
     height="18.900087"
     x="1.8217639"
     y="1.6883886"
     ry="0"
     inkscape:label="arriere" />
  <g
     id="g72178"
     transform="matrix(0.72313316,0,0,0.72313316,0.14500475,-1.1557506)">
    <path
       d="m 16.5,6 h -1 V 4 h 1 z"
       fill="#4d4d4d"
       stroke-width="1.41421"
       id="path31" />
    <path
       d="m 18,18 -9,5 5,-9 z"
       fill="url(#e)"
       stroke-width="0.527022"
       id="path33"
       style="fill:url(#e)" />
    <path
       d="m 14,14 9,-5 -5,9 z"
       fill="url(#c)"
       stroke-width="0.527022"
       id="path35"
       style="fill:url(#c)" />
    <path
       d="m 17,16 a 1,1 0 0 1 -1,1 1,1 0 0 1 -1,-1 1,1 0 0 1 1,-1 1,1 0 0 1 1,1 z"
       fill="#bdc3c7"
       id="path37" />
    <path
       d="M 16.5,16 A 0.5,0.5 0 0 1 16,16.5 0.5,0.5 0 0 1 15.5,16 0.5,0.5 0 0 1 16,15.5 0.5,0.5 0 0 1 16.5,16 Z"
       fill="#9fa5a8"
       id="path39" />
    <path
       d="M 23,9 9,23 13.789062,27.789062 C 14.506393,27.921835 15.243082,28 16,28 c 3.487492,0 6.608246,-1.481634 8.796875,-3.841797 L 25.40625,23.455078 C 27.026867,21.409686 28,18.824021 28,16 28,15.243082 27.92184,14.506393 27.789062,13.789062 Z"
       fill="url(#g)"
       fill-rule="evenodd"
       opacity="0.2"
       id="path41"
       style="fill:url(#g)" />
    <g
       fill="#4d4d4d"
       stroke-width="1.41421"
       id="g49">
      <path
         d="m 6,15.5 v 1 H 4 v -1 z"
         id="path43" />
      <path
         d="m 28,15.5 v 1 h -2 v -1 z"
         id="path45" />
      <path
         d="m 16.5,28 h -1 v -2 h 1 z"
         id="path47" />
    </g>
  </g>
  <path
     style="display:inline;mix-blend-mode:normal;fill:url(#linearGradient3403);fill-opacity:1;stroke:url(#linearGradient20558);stroke-width:1.16242;stroke-linecap:butt;stroke-linejoin:round;stroke-miterlimit:4;stroke-dasharray:none;stroke-opacity:1;filter:url(#filter20720)"
     d="M 4.7043071,3.9814882 4.6913695,60.80196 H 58.59546 l 1.022155,-2.866369 c 0,0 -23.87537,0.766388 -32.844441,-4.140386 C 16.257548,48.042344 11.401114,4.0978197 11.401114,4.0978197 Z"
     id="path1686"
     sodipodi:nodetypes="ccccscc"
     transform="matrix(0.33270641,0,0,0.33270641,0.4662968,0.3637204)"
     inkscape:label="folder" />
  <rect
     style="display:inline;fill:none;fill-opacity:1;stroke:url(#linearGradient4557);stroke-width:3.71366;stroke-linejoin:round;stroke-miterlimit:7.8;stroke-dasharray:none;stroke-opacity:0.995146;filter:url(#filter4601)"
     id="rect4539"
     width="62.567089"
     height="62.866646"
     x="1.0323594"
     y="0.59551275"
     ry="6.2447233"
     rx="5.8029528"
     transform="matrix(0.31167362,0,0,0.31103836,1.0252976,1.0360188)"
     inkscape:label="contour" />
</svg>

<svg width="22" height="22" version="1.1" viewBox="0 0 22 22" xmlns="http://www.w3.org/2000/svg" xmlns:xlink="http://www.w3.org/1999/xlink">
<defs>
<linearGradient id="linearGradient3403" x1="6.9492" x2="11.215" y1="4.5549" y2="59.052" gradientUnits="userSpaceOnUse">
<stop style="stop-color:#32373c" offset="0"/>
<stop style="stop-color:#1a1a1a" offset=".36805"/>
<stop style="stop-color:#31363b" offset="1"/>
</linearGradient>
<linearGradient id="linearGradient20558" x1="25.802" x2="25.111" y1="20.374" y2="58.913" gradientUnits="userSpaceOnUse">
<stop style="stop-color:#3d3d3d" offset="0"/>
<stop offset=".61772"/>
<stop style="stop-color:#3d3d3d" offset="1"/>
</linearGradient>
<linearGradient id="linearGradient4557" x1="43.5" x2="44.142" y1="64.012" y2=".30621" gradientTransform="translate(.36068 -.13017)" gradientUnits="userSpaceOnUse">
<stop style="stop-color:#141618" offset="0"/>
<stop style="stop-color:#686868" offset=".51821"/>
<stop style="stop-color:#31363b" offset="1"/>
</linearGradient>
<linearGradient id="e" x1="9" x2="18" y1="14" y2="23" gradientUnits="userSpaceOnUse">
<stop stop-color="#4d4d4d" offset="0"/>
<stop stop-color="#232629" offset="1"/>
</linearGradient>
<linearGradient id="c" x1="23" x2="23" y1="18" y2="9" gradientUnits="userSpaceOnUse">
<stop stop-color="#c61423" offset="0"/>
<stop stop-color="#dc2b41" offset="1"/>
</linearGradient>
<linearGradient id="g" x1="11" x2="26" y1="8" y2="24" gradientTransform="translate(-2 1)" gradientUnits="userSpaceOnUse">
<stop stop-color="#292c2f" offset="0"/>
<stop stop-opacity="0" offset="1"/>
</linearGradient>
</defs>
<rect x="1.8218" y="1.6884" width="18.622" height="18.9" ry="0" style="fill-rule:evenodd;fill:#fafafa"/>
<g transform="matrix(.72313 0 0 .72313 .145 -1.1558)">
<path d="m16.5 6h-1v-2h1z" fill="#4d4d4d" stroke-width="1.4142"/>
<path d="m18 18-9 5 5-9z" fill="url(#e)" stroke-width=".52702" style="fill:url(#e)"/>
<path d="m14 14 9-5-5 9z" fill="url(#c)" stroke-width=".52702" style="fill:url(#c)"/>
<path d="m17 16a1 1 0 0 1-1 1 1 1 0 0 1-1-1 1 1 0 0 1 1-1 1 1 0 0 1 1 1z" fill="#bdc3c7"/>
<path d="m16.5 16a0.5 0.5 0 0 1-0.5 0.5 0.5 0.5 0 0 1-0.5-0.5 0.5 0.5 0 0 1 0.5-0.5 0.5 0.5 0 0 1 0.5 0.5z" fill="#9fa5a8"/>
<path d="m23 9-14 14 4.7891 4.7891c0.71733 0.13277 1.454 0.21094 2.2109 0.21094 3.4875 0 6.6082-1.4816 8.7969-3.8418l0.60938-0.70312c1.6206-2.0454 2.5938-4.6311 2.5938-7.4551 0-0.75692-0.07816-1.4936-0.21094-2.2109z" fill="url(#g)" fill-rule="evenodd" opacity=".2" style="fill:url(#g)"/>
<g fill="#4d4d4d" stroke-width="1.4142">
<path d="m6 15.5v1h-2v-1z"/>
<path d="m28 15.5v1h-2v-1z"/>
<path d="m16.5 28h-1v-2h1z"/>
</g>
</g>
<path transform="matrix(.33271 0 0 .33271 .4663 .36372)" d="m4.7043 3.9815-0.012938 56.82h53.904l1.0222-2.8664s-23.875 0.76639-32.844-4.1404c-10.516-5.7529-15.372-49.697-15.372-49.697z" style="fill:url(#linearGradient3403);mix-blend-mode:normal;stroke-linejoin:round;stroke-width:1.1624;stroke:url(#linearGradient20558)"/>
<rect transform="matrix(.31167 0 0 .31104 1.0253 1.036)" x="1.0324" y=".59551" width="62.567" height="62.867" rx="5.803" ry="6.2447" style="fill:none;stroke-linejoin:round;stroke-miterlimit:7.8;stroke-opacity:.99515;stroke-width:3.7137;stroke:url(#linearGradient4557)"/>
</svg>
